symbols/web/library_music/materialsymbolssharp/library_music_grad200_24px.svg

<svg xmlns="http://www.w3.org/2000/svg" height="24" width="24"><path d="M12.675 15.4q1.2 0 2.025-.825t.825-2.025V7.1h3.25V4.75h-4.4v5.45q-.375-.25-.813-.375-.437-.125-.887-.125-1.2 0-2.025.825t-.825 2.025q0 1.2.825 2.025t2.025.825Zm-7.1-14.15h17.5v17.5h-17.5Zm2.65 14.85h12.2V3.9h-12.2Zm-7.3 7.3V5.9h2.65v14.85h14.85v2.65Zm7.3-19.5v12.2Z"/></svg>

<svg xmlns="http://www.w3.org/2000/svg" height="24" width="24"><path d="M12.675 15.4Q13.875 15.4 14.7 14.575Q15.525 13.75 15.525 12.55V7.1H18.775V4.75H14.375V10.2Q14 9.95 13.562 9.825Q13.125 9.7 12.675 9.7Q11.475 9.7 10.65 10.525Q9.825 11.35 9.825 12.55Q9.825 13.75 10.65 14.575Q11.475 15.4 12.675 15.4ZM5.575 1.25H23.075V18.75H5.575ZM8.225 16.1H20.425V3.9H8.225ZM0.925 23.4V5.9H3.575V20.75H18.425V23.4ZM8.225 3.9V16.1Z"/></svg>
